src/xmb/monochrome/Bandai - Design Master Denshi Mangajuku-content.svg

<svg enable-background="new 0 0 64 64" viewBox="0 0 64 64" xmlns="http://www.w3.org/2000/svg"><path d="m53 10v-7h-42v7h-2v17 1.5 32.5h46v-32.5-1.5-17zm-13.501 38.438-7.323 6.408c-.099.087-.248.082-.341-.011l-6.408-6.408c-.158-.158-.046-.427.177-.427h13.731c.23 0 .338.286.164.438zm12.501-5.438c0 .552-.448 1-1 1h-38c-.552 0-1-.448-1-1v-14h8v-10.5c0-.276.224-.5.5-.5h23c.276 0 .5.224.5.5v10.5h8z" fill="#fff"/></svg>

<svg xmlns="http://www.w3.org/2000/svg" viewBox="0 0 64 64"><path fill="#fff" d="M53 10V3H11v7H9v51h46V10zM39.499 48.438l-7.323 6.408a.25.25 0 0 1-.341-.011l-6.408-6.408a.25.25 0 0 1 .177-.427h13.731a.25.25 0 0 1 .164.438M52 43a1 1 0 0 1-1 1H13a1 1 0 0 1-1-1V29h8V18.5a.5.5 0 0 1 .5-.5h23a.5.5 0 0 1 .5.5V29h8z"/></svg>
